X:1
T:Title
%%score ( 1 2 ) ( 3 4 )
L:1/8
Q:1/4=60
M:6/8
K:Ab
V:1 treble nm="Strings 1, SOPRANO ALTO"
V:2 treble 
V:3 bass nm="Strings 1, TENOR BASS"
V:4 bass 
V:1
 [Ec]2 [DB] [CA]2 [Ec] | [CA]2 E [DF] [FA]2 | [Ed]2 [Ec] [EB]2 E | [Ec]2 [DB] [CA]3 | %4
w: 1.~More~ like~ Christ,~ my~|heart~ is~ pray ing,~|More~ like~ Christ~ from~|day~ to~ day;~|
 [Ee]2 [Ed] [Ec]2 [CA] | [CA]2 E [DF] [DA]2 | [_CF]2 [CF] [=CE]2 [CE] | E2- [CE] [DE]3 | [CE]6 | %9
w: All~ His~ grac es~|rich~ dis play ing,~|While~ I~ tread~ my~|pil * grim~|way.~|
 [Ec]2 [DB] [CA]3 | [FA]2 [DF] [CE]3 | [EB]2 [Ec] [Ed]2 [EB] | [Ac]3 [A=d]3 | [Ge]3- [Ge]2 [Ed] | %14
w: |||||
 [Ec]2 [DB] [CA]3 | [FA]2 [DF] [CE]3 | c2- [Ac] B2- [EB] | [EA]6 |] %18
w: ||||
V:2
 x6 | x6 | x6 | x6 | x6 | x6 | x6 | .B,3 z3 | x6 | x6 | x6 | x6 | x6 | x6 | x6 | x6 | .E3 .G3 | %17
 x6 |] %18
V:3
 [A,,A,]2 [A,,A,] [A,,A,]2 [A,,A,] | [A,,A,]2 [C,A,] [D,A,] [D,A,]2 | %2
 [E,G,]2 [E,A,] [E,G,]2 [E,G,] | [A,,A,]2 [A,,E,] [A,,E,]3 | [A,C]2 [A,B,] A,2 [A,,E,] | %5
 [A,,E,]2 [C,A,] [D,A,] [D,F,]2 | [=D,A,]2 [D,A,] [E,A,]2 [E,A,] | G,2 A, [E,B,]3 | [A,,A,]6 | %9
 A,2 [E,G,] [F,A,]3 | [D,D]2 [D,A,] [A,,A,]3 | [E,G,]2 [E,A,] [E,B,]2 [E,G,] | A,3 [F,B,]3 | %13
 [E,B,]3- [E,B,]2 [E,G,] | [A,,A,]2 [E,G,] [F,A,]3 | [D,D]2 [D,A,] [A,,A,]3 | A,2 C E2 D | %17
 [A,,C]6 |] %18
V:4
 x6 | x6 | x6 | x6 | x6 | x6 | x6 | E,3 z3 | x6 | x6 | x6 | x6 | x6 | x6 | x6 | x6 | E,3 E,3 | %17
 x6 |] %18

